!!!OTL: Die Feldwacht.
!!!OTL-incipit: ICH KANN UND MAG NICHT FROEHLICH SEYN
!!!ARE: Europa, Mitteleuropa, Deutschland, Schwaben
!!!SCT: Z1094
!!!TXL: @@DE
!!!YEM: Copyright 1995, estate of Helmut Schaffrath.
**kern	**text
*ICvox	*
*M3/4	*
*k[b-]	*
*F:	*
!LO:TX:a:t=Aus Schwaben.	!
{8c	Jch
8f	kann
8g	und
=1	=1
8fL	mag
8cc	.
8b-J	.
8a	nicht
8g	fröhlich
8f	.
=2	=2
4g	ſeyn,
8r}	.
{8cc	wenn
8a	An-
8b-	-dre
=3	=3
4cc	ſchla-
8dd	-fen,
8cc	ſo
8b-	muß
8a	ich
=4	=4
4b-	wa-
8cc	-chen,
8cc	muß
8a	trau-
(16ccL	-rig
16b-J)	.
=5	=5
4a	ſeyn,
8r}	.
{8c	muß
8f	trau-
8g	-rig
=6	=6
8fL	ſeyn,
8cc	.
8b-J	.
8a	muß
8g	trau-
8f	-rig
=7	=7
4g	ſeyn!
8r}	.
{8cc	wenn
8a	An-
8b-/	-dre
=8	=8
4cc	ſchla-
8dd	-fen,
8cc	ſo
8b-	muß
8a	ich
=9	=9
4b-	wa-
8cc	-chen,
16ccL	muß
16b-J	.
8a	trau-
8g	-rig
=10	=10
4f	ſeyn!
8r}	.
==	==
!!!AGN: Romanze, Ballade, verlassene Liebe
!!!ONB: ESAC (Essen Associative Code) Database: ZUCCAL
!!!AMT: simple triple
!!!AIN: vox
!!!EED: Helmut Schaffrath
!!!EEV: 1.0
!!!GTL: II. Gau- Leuschen.
!!!URL-scan: https://www.digitale-sammlungen.de/de/view/bsb11160573?page=203
!!!ENC: Anna Maria Matuszewska
!!!EEV: 2025/02/04
*-	*-
